app/static/img/logo-alt.svg

<?xml version="1.0" encoding="UTF-8"?>
<svg width="376px" height="501px" viewBox="0 0 376 501" version="1.1" xmlns="http://www.w3.org/2000/svg" xmlns:xlink="http://www.w3.org/1999/xlink">
    <title>logo-alt</title>
    <g id="Page-1" stroke="none" stroke-width="1" fill="none" fill-rule="evenodd">
        <g id="logo-alt" fill-rule="nonzero">
            <path d="M23.3132706,33.5910721 C21.8454666,35.6753578 20.6884384,37.9619522 19.8785019,40.3791199 L2.2729492,124.156632 C0.2657928,130.146728 0.4815216,136.659134 2.8806991,142.503281 L30.0182266,197.244064 L121.216614,104.564697 L60.1390381,3.4472828 C57.8676376,-0.3131499 52.5799103,-0.7437386 49.7300339,2.599659 L23.3132706,33.5910721 Z" id="Ear_left" fill="#A1DADB"></path>
            <path d="M352.686737,33.5910721 C354.154541,35.6753578 355.311554,37.9619522 356.12149,40.3791199 L373.727051,124.156632 C375.734192,130.146728 375.518463,136.659134 373.119293,142.503281 L345.981781,197.244064 L254.783386,104.564697 L315.860962,3.4472828 C318.132355,-0.3131499 323.420074,-0.7437386 326.269958,2.599659 L352.686737,33.5910721 Z" id="Ear_right" fill="#A1DADB"></path>
            <path d="M188,500.33728 C219.788239,500.33728 250.105469,494.279205 278.078705,483.475922 C287.161652,479.968079 292.404816,470.43277 290.495239,460.88504 L274.524536,381.032288 L233.17099,427.937012 C225.996033,436.073303 216.829926,442.141266 206.599304,445.523834 C194.312897,449.587189 181.071899,449.587189 168.784546,445.523834 C158.554871,442.141266 149.387802,436.073303 142.213821,427.937012 L101.295166,381.526001 L85.4765014,460.887421 C83.5742187,470.431091 88.8169402,479.958099 97.8944854,483.465088 C125.875595,494.275177 156.201691,500.33728 188,500.33728 Z" id="Neck" fill="#025E57"></path>
            <path d="M239.94043,433.570312 L239.772461,433.753906 C231.581055,443.039063 221.060547,449.998047 209.344726,453.879883 C202.380859,456.192383 195.095703,457.365234 187.691406,457.365234 C180.292969,457.365234 172.998047,456.192383 166.01416,453.879883 C154.312988,449.996094 143.799805,443.036133 135.610352,433.753906 L135.518555,433.649414 L98.6066894,395.013794 L85.4764862,460.887421 C83.5741882,470.431091 88.816925,479.958099 97.8944702,483.465057 C125.87561,494.275177 156.201706,500.33728 188,500.33728 C219.788269,500.33728 250.105438,494.279175 278.078705,483.475922 C287.161682,479.968048 292.404816,470.432739 290.495239,460.88501 L277.173462,394.276733 L239.94043,433.570312 Z" id="Path" fill="#047F7C"></path>
            <path d="M65.3664551,219.230194 L127.058807,256.244629 C135.46315,261.287628 140.605469,270.369843 140.605469,280.171387 C140.605469,288.895874 147.678192,295.969574 156.403641,295.969574 L188,295.969574 L219.596344,295.969574 C228.321808,295.969574 235.394531,288.895874 235.394531,280.171387 C235.394531,270.369843 240.536835,261.287628 248.941193,256.244629 L310.633545,219.230194 C313.088501,217.756836 315.898315,216.978684 318.761169,216.978684 L345.854492,216.978684 L345.981781,197.2435 L287.564972,137.877869 L327.315949,26.6204834 C328.451813,23.4404049 332.431244,22.3999844 334.97879,24.615818 L356.798676,43.5988922 L356.121765,40.3792839 C355.311798,37.9619217 354.154694,35.674736 352.687134,33.5910034 L326.269714,2.5992298 C323.419434,-0.7447696 318.132477,-0.3137522 315.860718,3.4468002 L254.783569,104.564201 L189.016327,104.564201 L121.221268,104.564201 C121.216446,104.564201 60.1392823,3.4468002 60.1392823,3.4468002 C57.8675309,-0.3137522 52.5805741,-0.7447696 49.7302705,2.5992298 L23.3128738,33.5910034 C21.8452911,35.674736 20.6882019,37.9619217 19.8782348,40.3792839 L19.201332,43.5988922 L41.0212173,24.615818 C43.5687484,22.3999843 47.5481872,23.4404049 48.6840667,26.6204834 L88.330902,137.987793 L30.0182265,197.2435 L30.0269011,216.978683 L57.2388381,216.978683 C60.1016846,216.978683 62.9114838,217.756836 65.3664551,219.230194 Z" id="Path" fill="#047F7C"></path>
            <path d="M37.8449936,308.916473 L90.4020996,369.171143 L142.288071,428.020874 C149.411911,436.101257 158.556808,442.142242 168.784546,445.523834 C175.023209,447.586365 181.513534,448.578583 188,448.545663 L188,295.969574 L156.403641,295.969574 C147.678192,295.969574 140.605469,288.895874 140.605469,280.171387 C140.605469,270.369843 135.46315,261.287628 127.058807,256.244629 L65.366455,219.230194 C62.9114837,217.756836 60.1016845,216.978683 57.2388381,216.978683 L30.0269011,216.978683 L30.0596922,288.161133 C30.0625839,295.793121 32.8280334,303.16571 37.8449936,308.916473 Z" id="Path" fill="#A1DADB"></path>
            <path d="M310.633545,219.230194 L248.941193,256.244629 C240.536835,261.287628 235.394531,270.369843 235.394531,280.171387 C235.394531,288.895874 228.321808,295.969574 219.596344,295.969574 L188,295.969574 L188,448.54483 C194.281097,448.513001 200.559296,447.521759 206.599304,445.523834 C216.828003,442.142242 225.9729,436.101257 233.096741,428.020874 L284.98175,369.171143 L337.610199,308.83548 C342.584747,303.132935 345.346344,295.835541 345.395508,288.269104 L345.854492,216.978684 L318.761169,216.978684 C315.898315,216.978684 313.088501,217.756836 310.633545,219.230194 Z" id="Path" fill="#A1DADB"></path>
            <path d="M345.981781,197.2435 L297.056976,147.52417 L229.080658,191.35968 C225.244904,193.818497 222.658783,197.814331 221.986725,202.319275 L219.713989,217.56012 C218.347656,226.725266 210.477508,232.502045 201.210144,232.502045 L188,232.502045 L174.789856,232.502045 C165.522507,232.502045 157.652344,226.725265 156.286011,217.56012 L154.01329,202.319275 C153.341202,197.814331 150.755096,193.818497 146.919342,191.35968 L78.9449463,147.52417 L30.0182266,197.2435 L30.0432968,251.291321 L47.984024,251.291321 C54.595848,251.291321 59.9560775,256.650574 59.9560775,263.262421 L59.9560775,267.642975 C59.9560775,272.189392 61.916397,276.514984 65.3356017,279.511841 L117.792419,325.487976 C121.211624,328.484863 124.886352,333.15564 124.886352,337.702057 L124.886352,408.283783 L142.28807,428.020874 C149.411911,436.101258 158.556808,442.142243 168.784546,445.523834 C181.063232,449.58429 194.321594,449.58429 206.599304,445.523834 C216.828003,442.142243 225.9729,436.101258 233.09674,428.020874 L251.113647,407.585663 L251.113647,337.702057 C251.113647,333.15564 254.788391,328.484863 258.20758,325.487976 L310.664398,279.511841 C314.083618,276.514984 316.043914,272.189392 316.043914,267.642975 L316.043914,263.262421 C316.043914,256.650574 321.404144,251.291321 328.01596,251.291321 L345.633667,251.291321 L345.981781,197.2435 Z" id="Mask" fill="#1CACAB"></path>
        </g>
    </g>
</svg>

<svg width="376" height="501" xmlns="http://www.w3.org/2000/svg"><g fill-rule="nonzero" fill="none"><path d="M23.313 33.591a26.304 26.304 0 00-3.434 6.788L2.273 124.157a26.304 26.304 0 00.608 18.346l27.137 54.741 91.199-92.68L60.139 3.448c-2.271-3.76-7.56-4.19-10.409-.847L23.313 33.59zM352.687 33.591a26.304 26.304 0 013.434 6.788l17.606 83.778a26.304 26.304 0 01-.608 18.346l-27.137 54.741-91.199-92.68L315.861 3.448c2.271-3.76 7.56-4.19 10.409-.847l26.417 30.991z" fill="#A1DADB"/><path d="M188 500.337c31.788 0 62.105-6.058 90.079-16.861 9.083-3.508 14.326-13.043 12.416-22.591l-15.97-79.853-41.354 46.905c-7.175 8.136-16.341 14.204-26.572 17.587a60.176 60.176 0 01-37.814 0c-10.23-3.383-19.397-9.45-26.571-17.587l-40.919-46.411-15.818 79.361c-1.903 9.544 3.34 19.071 12.417 22.578 27.982 10.81 58.308 16.872 90.106 16.872z" fill="#025E57"/><path d="M239.94 433.57l-.168.184a69.98 69.98 0 01-30.427 20.126 68.58 68.58 0 01-21.654 3.485 68.846 68.846 0 01-21.677-3.485c-11.701-3.884-22.214-10.844-30.404-20.126l-.091-.105-36.912-38.635-13.13 65.873c-1.903 9.544 3.34 19.071 12.417 22.578 27.982 10.81 58.308 16.872 90.106 16.872 31.788 0 62.105-6.058 90.079-16.861 9.083-3.508 14.326-13.043 12.416-22.591l-13.322-66.608-37.233 39.293zM65.366 219.23l61.693 37.015a27.903 27.903 0 0113.546 23.926c0 8.725 7.073 15.799 15.799 15.799h63.192c8.726 0 15.799-7.074 15.799-15.799a27.903 27.903 0 0113.546-23.926l61.693-37.015a15.795 15.795 0 018.127-2.251h27.093l.128-19.736-58.417-59.365 39.75-111.258c1.137-3.18 5.116-4.22 7.664-2.004l21.82 18.983-.677-3.22a26.302 26.302 0 00-3.435-6.788L326.27 2.599c-2.85-3.344-8.138-2.913-10.41.848l-61.076 101.117H121.22c-.005 0-61.082-101.117-61.082-101.117-2.271-3.76-7.558-4.192-10.409-.848L23.313 33.591a26.3 26.3 0 00-3.435 6.788l-.677 3.22 21.82-18.983c2.548-2.216 6.527-1.176 7.663 2.004l39.647 111.368-58.313 59.256.009 19.735h27.212c2.863 0 5.672.778 8.127 2.251z" fill="#047F7C"/><path d="M37.845 308.916l52.557 60.255 51.886 58.85a60.746 60.746 0 0026.497 17.503A60.21 60.21 0 00188 448.546V295.97h-31.596c-8.726 0-15.799-7.074-15.799-15.799a27.903 27.903 0 00-13.546-23.926L65.366 219.23a15.795 15.795 0 00-8.127-2.251H30.027l.033 71.182a31.59 31.59 0 007.785 20.755zM310.634 219.23l-61.693 37.015a27.903 27.903 0 00-13.546 23.926c0 8.725-7.073 15.799-15.799 15.799H188v152.575a60.166 60.166 0 0018.6-3.021 60.743 60.743 0 0026.497-17.503l51.885-58.85 52.628-60.336a31.597 31.597 0 007.786-20.566l.458-71.29h-27.093c-2.863 0-5.672.778-8.127 2.251z" fill="#A1DADB"/><path d="M345.982 197.244l-48.925-49.72-67.976 43.836a15.785 15.785 0 00-7.094 10.96l-2.273 15.24c-1.366 9.165-9.236 14.942-18.504 14.942h-26.42c-9.267 0-17.138-5.777-18.504-14.942l-2.273-15.24a15.785 15.785 0 00-7.094-10.96l-67.974-43.836-48.927 49.72.025 54.047h17.941c6.612 0 11.972 5.36 11.972 11.971v4.381c0 4.546 1.96 8.872 5.38 11.869l52.456 45.976c3.42 2.997 7.094 7.668 7.094 12.214v70.582l17.402 19.737a60.746 60.746 0 0026.497 17.503 60.217 60.217 0 0037.814 0 60.743 60.743 0 0026.498-17.503l18.017-20.435v-69.884c0-4.546 3.674-9.217 7.094-12.214l52.456-45.976a15.782 15.782 0 005.38-11.869v-4.38c0-6.612 5.36-11.972 11.972-11.972h17.618l.348-54.047z" fill="#1CACAB"/></g></svg>
